assets/icons/utility/kanban.svg

<?xml version="1.0"?><svg xmlns="http://www.w3.org/2000/svg" width="52" height="52" viewBox="0 0 52 52"><path fill="#fff" d="m32 17.5c0-0.8-0.7-1.5-1.5-1.5h-9c-0.8 0-1.5 0.7-1.5 1.5v27c0 0.8 0.7 1.5 1.5 1.5h9c0.8 0 1.5-0.7 1.5-1.5v-27z m-18 0c0-0.8-0.7-1.5-1.5-1.5h-9c-0.8 0-1.5 0.7-1.5 1.5v31c0 0.8 0.7 1.5 1.5 1.5h9c0.8 0 1.5-0.7 1.5-1.5v-31z m36 0c0-0.8-0.7-1.5-1.5-1.5h-9c-0.8 0-1.5 0.7-1.5 1.5v23c0 0.8 0.7 1.5 1.5 1.5h9c0.8 0 1.5-0.7 1.5-1.5v-23z m0-14c0-0.8-0.7-1.5-1.5-1.5h-45c-0.8 0-1.5 0.7-1.5 1.5v5c0 0.8 0.7 1.5 1.5 1.5h45c0.8 0 1.5-0.7 1.5-1.5v-5z"></path></svg>

<svg xmlns="http://www.w3.org/2000/svg" x="0px" y="0px"
	 width="52px" height="52px" viewBox="0 0 52 52" enable-background="new 0 0 52 52" xml:space="preserve">
<path fill="#FFFFFF" d="M32,17.5c0-0.8-0.7-1.5-1.5-1.5h-9c-0.8,0-1.5,0.7-1.5,1.5v27c0,0.8,0.7,1.5,1.5,1.5h9
	c0.8,0,1.5-0.7,1.5-1.5V17.5z"/>
<path fill="#FFFFFF" d="M14,17.5c0-0.8-0.7-1.5-1.5-1.5h-9C2.7,16,2,16.7,2,17.5v31C2,49.3,2.7,50,3.5,50h9c0.8,0,1.5-0.7,1.5-1.5
	V17.5z"/>
<path fill="#FFFFFF" d="M50,17.5c0-0.8-0.7-1.5-1.5-1.5h-9c-0.8,0-1.5,0.7-1.5,1.5v23c0,0.8,0.7,1.5,1.5,1.5h9
	c0.8,0,1.5-0.7,1.5-1.5V17.5z"/>
<path fill="#FFFFFF" d="M50,3.5C50,2.7,49.3,2,48.5,2h-45C2.7,2,2,2.7,2,3.5v5C2,9.3,2.7,10,3.5,10h45c0.8,0,1.5-0.7,1.5-1.5V3.5z"
	/>
</svg>
